public/img/1.svg

<svg width="216" height="275" viewBox="0 0 216 275" fill="none" xmlns="http://www.w3.org/2000/svg">
<g opacity="0.7">
<g clip-path="url(#clip0)">
<mask id="mask0" mask-type="alpha" maskUnits="userSpaceOnUse" x="-94" y="-70" width="535" height="535">
<path fill-rule="evenodd" clip-rule="evenodd" d="M-1.59822 172.09C-4.4234 180.399 -6.73937 188.856 -8.57613 197.296L100.305 89.5632C98.2837 89.5318 96.2608 89.482 94.2405 89.4323C90.9429 89.3511 87.6524 89.2702 84.3855 89.2694L-1.59822 172.09ZM7.43083 149.843L67.1091 90.5039C58.6287 91.9815 50.5412 95.1037 43.177 101.464C28.0651 114.516 16.2779 131.355 7.43083 149.843ZM112.054 89.4039L-11.7912 215.278C-12.5976 220.867 -13.3163 226.541 -13.9055 232.249L134.46 84.7429C127.259 87.7758 119.719 88.9858 112.054 89.4039ZM171.206 48.2106L239.748 -19.9338C236.681 -19.8543 233.553 -19.4847 230.363 -18.7956C208.12 -13.9906 194.755 8.68069 181.004 32.0072C177.798 37.4454 174.571 42.9193 171.206 48.2106ZM251.854 -18.7337L-14.9594 244.583C-15.3945 251.114 -15.6222 257.64 -15.5809 264.083L258.249 -16.8565C256.154 -17.6147 254.022 -18.2446 251.854 -18.7337ZM265.99 -13.4024L-15.1779 275.971C-14.9853 279.014 -14.7212 282.028 -14.3787 285.002L277.273 -5.97153C273.662 -8.81857 269.899 -11.3261 265.99 -13.4024ZM280.996 -2.87368L-12.7291 295.87C-11.8879 300.269 -10.8413 304.55 -9.56436 308.682L292.318 8.62286C288.746 4.48498 284.969 0.608259 280.996 -2.87368ZM301.335 20.154L-6.662 316.821C-4.72511 321.567 -2.42524 326.063 0.28227 330.254L306.294 27.4699C304.703 25.0041 303.049 22.5587 301.335 20.154ZM309.413 32.452L7.36094 339.454C7.50581 339.612 7.6515 339.77 7.79801 339.927C9.89269 342.173 12.1103 344.237 14.4385 346.13L316.765 45.5567C316.394 44.7909 316.006 44.0316 315.601 43.279C313.673 39.698 311.609 36.068 309.413 32.452ZM319.852 53.1637L19.1696 349.645C23.5075 352.584 28.1617 355.015 33.0648 356.991L321.822 60.2299C321.276 57.8311 320.624 55.4739 319.852 53.1637ZM323.392 69.2913L41.5914 359.912C44.252 360.675 46.9685 361.325 49.7319 361.87L324.354 87.9321C324.389 81.5658 324.143 75.3265 323.392 69.2913ZM324.2 95.3494L60.3515 363.439C65.0918 363.922 69.9285 364.143 74.8199 364.134L323.035 117.33C323.129 115.7 323.227 114.07 323.324 112.442C323.667 106.705 324.009 100.99 324.2 95.3494ZM322.278 137.038L86.9969 363.664C94.6392 363.104 102.33 362.063 109.916 360.665L322.628 150.197C322.338 145.858 322.244 141.463 322.278 137.038ZM323.561 158.841L129.862 355.714C144.468 349.845 156.544 337.075 168.71 324.21C181.186 311.017 193.757 297.724 209.248 291.67L327.119 174.483C325.614 169.245 324.369 164.023 323.561 158.841ZM330.164 184.215L225.106 287.897C230.027 287.364 235.029 287.323 240.067 287.594L332.959 192.29C332.005 189.6 331.065 186.907 330.164 184.215ZM338.974 209.264L260.577 289.948C262.618 290.264 264.656 290.59 266.688 290.915C268.664 291.232 270.635 291.547 272.596 291.85L342.886 221.724C341.736 217.604 340.4 213.446 338.974 209.264ZM345.1 230.805L283.589 293.367C290.049 294.105 296.353 294.473 302.4 294.053L346.71 250.01C347.1 243.768 346.431 237.348 345.1 230.805Z" fill="white"/>
</mask>
<g mask="url(#mask0)">
<path d="M126.588 110.672H109.393V84.7894H158.263V186.149H178.535V211.489H106.859V186.149H126.588V110.672Z" fill="white"/>
</g>
</g>
</g>
<defs>
<clipPath id="clip0">
<rect y="0.808624" width="215.608" height="274.079" fill="white"/>
</clipPath>
</defs>
</svg>

<svg width="216" height="275" fill="none" xmlns="http://www.w3.org/2000/svg"><g clip-path="url(#clip0)" opacity=".7"><mask id="a" maskUnits="userSpaceOnUse" x="-94" y="-70" width="535" height="535"><path fill-rule="evenodd" clip-rule="evenodd" d="M-1.598 172.09a231.07 231.07 0 00-6.978 25.206L100.305 89.563c-2.021-.031-4.044-.081-6.065-.13-3.297-.082-6.588-.163-9.855-.164L-1.598 172.09zm9.029-22.247l59.678-59.34c-8.48 1.478-16.568 4.6-23.932 10.961-15.112 13.052-26.9 29.891-35.746 48.379zm104.623-60.44L-11.791 215.279a423.476 423.476 0 00-2.114 16.971L134.46 84.743c-7.201 3.033-14.741 4.243-22.406 4.66zm59.152-41.192l68.542-68.145c-3.067.08-6.195.45-9.385 1.138-22.243 4.805-35.608 27.477-49.359 50.803-3.206 5.438-6.433 10.912-9.798 16.204zm80.648-66.945L-14.959 244.583c-.436 6.531-.663 13.057-.622 19.5l273.83-280.94a53.167 53.167 0 00-6.395-1.877zm14.136 5.332L-15.178 275.97c.193 3.043.457 6.057.8 9.031L277.272-5.972c-3.611-2.847-7.374-5.354-11.283-7.43zm15.006 10.528L-12.729 295.87c.841 4.399 1.888 8.68 3.165 12.812L292.318 8.622c-3.572-4.137-7.349-8.014-11.322-11.496zm20.339 23.028L-6.662 316.821c1.937 4.746 4.237 9.242 6.944 13.433L306.294 27.47a191.345 191.345 0 00-4.959-7.316zm8.078 12.298L7.361 339.454c.145.158.29.316.437.473a66.024 66.024 0 006.64 6.203L316.765 45.557a60.117 60.117 0 00-1.164-2.278 240.777 240.777 0 00-6.188-10.827zm10.439 20.712L19.17 349.645c4.337 2.939 8.992 5.37 13.895 7.346L321.822 60.23a74.322 74.322 0 00-1.97-7.066zm3.54 16.127l-281.8 290.621a99.058 99.058 0 008.14 1.958L324.354 87.932c.035-6.366-.211-12.606-.962-18.64zm.808 26.058L60.351 363.44c4.74.483 9.578.704 14.469.695L323.035 117.33c.094-1.63.192-3.26.289-4.888.343-5.737.685-11.452.876-17.093zm-1.922 41.689L86.997 363.664c7.642-.56 15.333-1.601 22.919-2.999l212.712-210.468c-.29-4.339-.384-8.734-.35-13.159zm1.283 21.803L129.862 355.714c14.606-5.869 26.682-18.639 38.848-31.504 12.476-13.193 25.047-26.486 40.538-32.54l117.871-117.187c-1.505-5.238-2.75-10.46-3.558-15.642zm6.603 25.374L225.106 287.897c4.921-.533 9.923-.574 14.961-.303l92.892-95.304a479.705 479.705 0 01-2.795-8.075zm8.81 25.049l-78.397 80.684c2.041.316 4.079.642 6.111.967 1.976.317 3.947.632 5.908.935l70.29-70.126c-1.15-4.12-2.486-8.278-3.912-12.46zm6.126 21.541l-61.511 62.562c6.46.738 12.764 1.106 18.811.686l44.31-44.043c.39-6.242-.279-12.662-1.61-19.205z" fill="#fff"/></mask><g mask="url(#a)"><path d="M126.588 110.672h-17.195V84.789h48.87v101.36h20.272v25.34h-71.676v-25.34h19.729v-75.477z" fill="#fff"/></g></g><defs><clipPath id="clip0"><path fill="#fff" d="M0 .809h215.608v274.079H0z"/></clipPath></defs></svg>
